X:1
T:Standin In The Need of Prayer
T:Give me Jesus
T:Copyright 1881 by The Riverside Press
T:Rodeheaver's Plantation Melodies
Z:Rodeheaver's Plantation Melodies
L:1/8
Q:1/4=70
M:2/4
K:C
V:1 treble nm="Soprano" snm="S."
V:1
 A>G | G<G G>A | C2 E2 | D<C E>G | G2 A>G | G<G G>A | C2 ED | C4 | C2 EG | G4 | %10
w: O- *|when I come to|die. O|when I come to|die. O- *|when I come to|die. Give me|Je-|sus. Give me|Je-|
"_2. In the morning when I rise.\n\n3. Dark midnight was my cry.\n\n4. I heard the mourner say." B2 AG | %11
w: sus. Give me|
 c4 | e2 ec | c A2 G | G2 GE | C4 | C4 |] %17
w: Je-|sus. You may|have all this|world. Give me|Je-|sus.|

